!!!!SEGMENT: Ser3002-Je_ne_fais_rien_que_requerir.krn
!!!id: Ser3002
!!!AGN: Chanson
!!!SCT: Cazeaux (1974)
!!!voices: 3
!!!COM: Claudin de Sermisy
!!!OTL: Je ne fais rien que requerir
**kern	**kern	**kern	**kern
*part4	*part3	*part2	*part1
*staff4	*staff3	*staff2	*staff1
*I"Bassus	*I"Tenor	*I"Altus	*I"Superius
*I'B	*I'T	*I'A	*I'S
*clefF4	*clefGv2	*clefG2	*clefG2
*k[]	*k[]	*k[]	*k[]
*C:	*C:	*C:	*C:
*M2/1	*M2/1	*M2/1	*M2/1
*met(C|)	*met(C|)	*met(C|)	*met(C|)
=1	=1	=1	=1
1G	1G	1r	1r
2E	2G	1g	1g
2E	2G	.	.
=2	=2	=2	=2
1.C	1c	2e	2g
.	.	2e	2g
.	1e	2c	1cc
2C	.	2g	.
=3	=3	=3	=3
1F	2d	1f	1a
.	1c	.	.
1G	.	1d	2g
.	2B	.	[2g
=4	=4	=4	=4
1C	2c	1e	4g]
.	.	.	4f
.	2G	.	4e
.	.	.	4d
1F	2A	1f	1c
.	[2c	.	.
=5	=5	=5	=5
1G	4c]	2d	2r
.	8BL	.	.
.	8AJ	.	.
.	2B	2e	2g
2F	1c	2.f	2a
2A	.	.	[2cc
.	.	8eL	.
.	.	8fJ	.
=6	=6	=6	=6
0G	[0d	1g	2cc]
.	.	.	4b
.	.	.	4a
.	.	2r	1b
.	.	2d	.
=7	=7	=7	=7
2r	1d]	2f	1a
2D	.	2f	.
2F	2r	2c	2a
2F	2A	2d	2a
=8	=8	=8	=8
4C	2c	1e	2.g
4D	.	.	.
4E	2c	.	.
4F	.	.	4a
2G	2B	2d	2b
2E	2G	2e	2cc
=9	=9	=9	=9
2D	4A	2f	2dd
.	4B	.	.
2C	4c	1e	2ee
.	4d	.	.
2c	2e	.	2cc
2B	2f	2d	[2dd
=10	=10	=10	=10
1A	1c	2e	2dd]
.	.	2f	1cc
1G	1d	1g	.
.	.	.	2b
=11	=11	=11	=11
2C	1c	2r	1cc
2c	.	2e	.
2c	1r	2e	1g
2B	.	2d	.
=12	=12	=12	=12
1c	2r	2.g	2e
.	2c	.	2e
.	.	4f	.
1G	2c	2e	2.g
.	2B	[2d	.
.	.	.	4f
=13	=13	=13	=13
1C	1c	4d]	2e
.	.	4c	.
.	.	1c	4d
.	.	.	4c
1r	1G	.	1d
.	.	2B	.
=14	=14	=14	=14
1F	2r	2c	1c
.	2A	2f	.
2E	2G	2g	1cc
2F	2A	2f	.
=15	=15	=15	=15
2G	2B	2d	2b
2E	2G	2e	2cc
2D	4A	4f	2dd
.	4B	4e	.
2C	4c	[2g	2ee
.	4A	.	.
=16	=16	=16	=16
2G	2B	2g]	4dd
.	.	.	4cc
2A	2c	2f	1cc
1G	1d	1g	.
.	.	.	2b
=17	=17	=17	=17
1C	2c	1e	1cc
.	2G	.	.
2r	2A	2r	2r
2E	2B	2e	2g
=18	=18	=18	=18
2A	2c	2f	2a
2G	2d	2g	2b
2C	2e	2g	2cc
2D	2d	2f	[2b
=19	=19	=19	=19
2E	2c	2e	2b]
2F	4B	2d	1a
.	4A	.	.
1E	1B	1e	.
.	.	.	2g#i
=20	=20	=20	=20
2r	1A	2c	1a
2c	.	2e	.
1c	2r	1e	2r
.	2e	.	2g
=21	=21	=21	=21
0A	1e	2.c	1cc
.	.	4d	.
.	1c	4e	4a
.	.	4d	4b
.	.	4e	4cc
.	.	4f	4a
=22	=22	=22	=22
1G	1d	1g	1b
2r	2r	2r	2r
2G	2d	2g	2b
=23	=23	=23	=23
2D	2d	2f	2a
2F	2c	2f	2a
2G	2B	2d	2g
2C	[2c	[2e	[2a
=24	=24	=24	=24
2E	4c]	2e]	4a]
.	4B	.	4g
2E	2G	2c	1g
1D	1A	1d	.
.	.	.	2f#i
=25	=25	=25	=25
2r	1G	2B	1g
2G	.	2d	.
1c	2r	1e	2r
.	2e	.	2g
=26	=26	=26	=26
0A	1e	2.c	1cc
.	.	4d	.
.	1c	4e	4a
.	.	4d	4b
.	.	4e	4cc
.	.	4f	4a
=27	=27	=27	=27
1G	1d	1g	1b
2r	2r	2r	2r
2G	2d	2g	2b
=28	=28	=28	=28
2D	2d	2f	2a
2F	2c	2f	2a
2G	2B	2d	2g
2C	[2c	[2e	[2a
=29	=29	=29	=29
1E	4c]	2e]	4a]
.	4B	.	4g
.	2G	2c	1g
1D	1A	1d	.
.	.	.	2f#i
=30	=30	=30	=30
00Gl	00Gl	00Bl	00gl
==	==	==	==
*-	*-	*-	*-
!!!system-decoration: [*]
!!!RDF**kern: i = editorial accidental
!!!RDF**kern: l = terminal long
!!!ENC: Benjamin Ory
!!!END: 2021/5/19
!!!EED: Benjamin Ory
!!!EEV: 2021/05/19
!!!YEC: Copyright 2021 Benjamin Ory, All Rights Reserved
!!!ONB: Translated from MusicXML on 2021/05/19
